images/3233161.svg

<?xml version="1.0" encoding="UTF-8"?>
<svg xmlns="http://www.w3.org/2000/svg" xmlns:xlink="http://www.w3.org/1999/xlink" width="300pt" height="300pt" viewBox="0 0 300 300" version="1.1">
<defs>
<g>
<symbol overflow="visible" id="glyph0-0">
<path style="stroke:none;" d="M 0.59375 2.125 L 0.59375 -8.46875 L 6.59375 -8.46875 L 6.59375 2.125 Z M 1.265625 1.453125 L 5.9375 1.453125 L 5.9375 -7.78125 L 1.265625 -7.78125 Z M 1.265625 1.453125 "/>
</symbol>
<symbol overflow="visible" id="glyph0-1">
<path style="stroke:none;" d="M 1.171875 -8.75 L 2.765625 -8.75 L 6.65625 -1.4375 L 6.65625 -8.75 L 7.796875 -8.75 L 7.796875 0 L 6.203125 0 L 2.328125 -7.3125 L 2.328125 0 L 1.171875 0 Z M 1.171875 -8.75 "/>
</symbol>
<symbol overflow="visible" id="glyph0-2">
<path style="stroke:none;" d="M 1.171875 -8.75 L 2.359375 -8.75 L 2.359375 -5.15625 L 6.65625 -5.15625 L 6.65625 -8.75 L 7.84375 -8.75 L 7.84375 0 L 6.65625 0 L 6.65625 -4.171875 L 2.359375 -4.171875 L 2.359375 0 L 1.171875 0 Z M 1.171875 -8.75 "/>
</symbol>
<symbol overflow="visible" id="glyph0-3">
<path style="stroke:none;" d="M 7.734375 -8.078125 L 7.734375 -6.828125 C 7.328125 -7.203125 6.898438 -7.476562 6.453125 -7.65625 C 6.003906 -7.84375 5.523438 -7.9375 5.015625 -7.9375 C 4.015625 -7.9375 3.25 -7.628906 2.71875 -7.015625 C 2.1875 -6.398438 1.921875 -5.515625 1.921875 -4.359375 C 1.921875 -3.210938 2.1875 -2.332031 2.71875 -1.71875 C 3.25 -1.101562 4.015625 -0.796875 5.015625 -0.796875 C 5.523438 -0.796875 6.003906 -0.890625 6.453125 -1.078125 C 6.898438 -1.265625 7.328125 -1.539062 7.734375 -1.90625 L 7.734375 -0.671875 C 7.316406 -0.390625 6.875 -0.175781 6.40625 -0.03125 C 5.945312 0.101562 5.460938 0.171875 4.953125 0.171875 C 3.617188 0.171875 2.570312 -0.234375 1.8125 -1.046875 C 1.050781 -1.859375 0.671875 -2.960938 0.671875 -4.359375 C 0.671875 -5.765625 1.050781 -6.875 1.8125 -7.6875 C 2.570312 -8.5 3.617188 -8.90625 4.953125 -8.90625 C 5.472656 -8.90625 5.960938 -8.832031 6.421875 -8.6875 C 6.890625 -8.550781 7.328125 -8.347656 7.734375 -8.078125 Z M 7.734375 -8.078125 "/>
</symbol>
<symbol overflow="visible" id="glyph0-4">
<path style="stroke:none;" d="M 1.125 -9.125 L 2.203125 -9.125 L 2.203125 0 L 1.125 0 Z M 1.125 -9.125 "/>
</symbol>
</g>
</defs>
<g id="surface33421">
<rect x="0" y="0" width="300" height="300" style="fill:rgb(100%,100%,100%);fill-opacity:1;stroke:none;"/>
<path style="fill:none;stroke-width:1.2;stroke-linecap:butt;stroke-linejoin:miter;stroke:rgb(0%,0%,0%);stroke-opacity:1;stroke-miterlimit:10;" d="M 264.75 197.882812 L 245.355469 221.453125 "/>
<path style="fill:none;stroke-width:1.2;stroke-linecap:butt;stroke-linejoin:miter;stroke:rgb(0%,0%,0%);stroke-opacity:1;stroke-miterlimit:10;" d="M 257.265625 195.675781 L 241.75 214.535156 "/>
<path style="fill:none;stroke-width:1.2;stroke-linecap:butt;stroke-linejoin:miter;stroke:rgb(0%,0%,0%);stroke-opacity:1;stroke-miterlimit:10;" d="M 254.035156 169.300781 L 264.75 197.882812 "/>
<path style="fill:none;stroke-width:1.2;stroke-linecap:butt;stroke-linejoin:miter;stroke:rgb(0%,0%,0%);stroke-opacity:1;stroke-miterlimit:10;" d="M 245.355469 221.453125 L 215.246094 216.441406 "/>
<path style="fill:none;stroke-width:1.2;stroke-linecap:butt;stroke-linejoin:miter;stroke:rgb(0%,0%,0%);stroke-opacity:1;stroke-miterlimit:10;" d="M 215.246094 216.441406 L 204.53125 187.859375 "/>
<path style="fill:none;stroke-width:1.2;stroke-linecap:butt;stroke-linejoin:miter;stroke:rgb(0%,0%,0%);stroke-opacity:1;stroke-miterlimit:10;" d="M 220.898438 211.0625 L 212.328125 188.199219 "/>
<path style="fill:none;stroke-width:1.2;stroke-linecap:butt;stroke-linejoin:miter;stroke:rgb(0%,0%,0%);stroke-opacity:1;stroke-miterlimit:10;" d="M 204.53125 187.859375 L 223.925781 164.289062 "/>
<path style="fill:none;stroke-width:1.2;stroke-linecap:butt;stroke-linejoin:miter;stroke:rgb(0%,0%,0%);stroke-opacity:1;stroke-miterlimit:10;" d="M 204.53125 187.859375 L 189.476562 185.355469 "/>
<path style="fill:none;stroke-width:1.2;stroke-linecap:butt;stroke-linejoin:miter;stroke:rgb(0%,80%,0%);stroke-opacity:1;stroke-miterlimit:10;" d="M 189.476562 185.355469 L 174.421875 182.851562 "/>
<path style="fill:none;stroke-width:1.2;stroke-linecap:butt;stroke-linejoin:miter;stroke:rgb(0%,0%,0%);stroke-opacity:1;stroke-miterlimit:10;" d="M 223.925781 164.289062 L 254.035156 169.300781 "/>
<path style="fill:none;stroke-width:1.2;stroke-linecap:butt;stroke-linejoin:miter;stroke:rgb(0%,0%,0%);stroke-opacity:1;stroke-miterlimit:10;" d="M 225.757812 171.875 L 249.84375 175.886719 "/>
<path style="fill:none;stroke-width:1.2;stroke-linecap:butt;stroke-linejoin:miter;stroke:rgb(0%,0%,0%);stroke-opacity:1;stroke-miterlimit:10;" d="M 223.925781 164.289062 L 213.210938 135.710938 "/>
<path style="fill:none;stroke-width:1.2;stroke-linecap:butt;stroke-linejoin:miter;stroke:rgb(0%,0%,0%);stroke-opacity:1;stroke-miterlimit:10;" d="M 213.210938 135.710938 L 232.605469 112.140625 "/>
<path style="fill:none;stroke-width:1.2;stroke-linecap:butt;stroke-linejoin:miter;stroke:rgb(0%,0%,0%);stroke-opacity:1;stroke-miterlimit:10;" d="M 209.605469 128.789062 L 225.121094 109.933594 "/>
<path style="fill:none;stroke-width:1.2;stroke-linecap:butt;stroke-linejoin:miter;stroke:rgb(0%,0%,0%);stroke-opacity:1;stroke-miterlimit:10;" d="M 183.101562 130.699219 L 213.210938 135.710938 "/>
<path style="fill:none;stroke-width:1.2;stroke-linecap:butt;stroke-linejoin:miter;stroke:rgb(0%,0%,0%);stroke-opacity:1;stroke-miterlimit:10;" d="M 232.605469 112.140625 L 227.246094 97.847656 "/>
<path style="fill:none;stroke-width:1.2;stroke-linecap:butt;stroke-linejoin:miter;stroke:rgb(0%,0%,100%);stroke-opacity:1;stroke-miterlimit:10;" d="M 227.246094 97.847656 L 221.890625 83.558594 "/>
<path style="fill:none;stroke-width:1.2;stroke-linecap:butt;stroke-linejoin:miter;stroke:rgb(0%,0%,100%);stroke-opacity:1;stroke-miterlimit:10;" d="M 221.890625 83.558594 L 206.835938 81.050781 "/>
<path style="fill:none;stroke-width:1.2;stroke-linecap:butt;stroke-linejoin:miter;stroke:rgb(0%,0%,0%);stroke-opacity:1;stroke-miterlimit:10;" d="M 206.835938 81.050781 L 191.78125 78.546875 "/>
<path style="fill:none;stroke-width:1.2;stroke-linecap:butt;stroke-linejoin:miter;stroke:rgb(0%,0%,100%);stroke-opacity:1;stroke-miterlimit:10;" d="M 217.699219 90.140625 L 205.65625 88.136719 "/>
<path style="fill:none;stroke-width:1.2;stroke-linecap:butt;stroke-linejoin:miter;stroke:rgb(0%,0%,0%);stroke-opacity:1;stroke-miterlimit:10;" d="M 205.65625 88.136719 L 193.613281 86.132812 "/>
<path style=" stroke:none;fill-rule:nonzero;fill:rgb(100%,100%,100%);fill-opacity:1;" d="M 217.890625 76.558594 L 226.890625 76.558594 L 226.890625 90.558594 L 217.890625 90.558594 Z M 217.890625 76.558594 "/>
<g style="fill:rgb(0%,0%,100%);fill-opacity:1;">
  <use xlink:href="#glyph0-1" x="217.890625" y="87.697266"/>
</g>
<path style="fill:none;stroke-width:1.2;stroke-linecap:butt;stroke-linejoin:miter;stroke:rgb(0%,0%,0%);stroke-opacity:1;stroke-miterlimit:10;" d="M 191.78125 78.546875 L 182.082031 90.332031 "/>
<path style="fill:none;stroke-width:1.2;stroke-linecap:butt;stroke-linejoin:miter;stroke:rgb(0%,0%,100%);stroke-opacity:1;stroke-miterlimit:10;" d="M 182.082031 90.332031 L 172.386719 102.117188 "/>
<path style="fill:none;stroke-width:1.2;stroke-linecap:butt;stroke-linejoin:miter;stroke:rgb(0%,0%,100%);stroke-opacity:1;stroke-miterlimit:10;" d="M 172.386719 102.117188 L 177.742188 116.40625 "/>
<path style="fill:none;stroke-width:1.2;stroke-linecap:butt;stroke-linejoin:miter;stroke:rgb(0%,0%,0%);stroke-opacity:1;stroke-miterlimit:10;" d="M 177.742188 116.40625 L 183.101562 130.699219 "/>
<path style="fill:none;stroke-width:1.2;stroke-linecap:butt;stroke-linejoin:miter;stroke:rgb(0%,0%,100%);stroke-opacity:1;stroke-miterlimit:10;" d="M 180.183594 102.453125 L 184.46875 113.886719 "/>
<path style="fill:none;stroke-width:1.2;stroke-linecap:butt;stroke-linejoin:miter;stroke:rgb(0%,0%,0%);stroke-opacity:1;stroke-miterlimit:10;" d="M 184.46875 113.886719 L 188.753906 125.316406 "/>
<path style=" stroke:none;fill-rule:nonzero;fill:rgb(100%,100%,100%);fill-opacity:1;" d="M 168.386719 95.117188 L 177.386719 95.117188 L 177.386719 109.117188 L 168.386719 109.117188 Z M 168.386719 95.117188 "/>
<g style="fill:rgb(0%,0%,100%);fill-opacity:1;">
  <use xlink:href="#glyph0-1" x="168.386719" y="106.255859"/>
</g>
<path style="fill:none;stroke-width:1.2;stroke-linecap:butt;stroke-linejoin:miter;stroke:rgb(0%,0%,0%);stroke-opacity:1;stroke-miterlimit:10;" d="M 183.101562 130.699219 L 173.402344 142.484375 "/>
<path style="fill:none;stroke-width:1.2;stroke-linecap:butt;stroke-linejoin:miter;stroke:rgb(0%,0%,100%);stroke-opacity:1;stroke-miterlimit:10;" d="M 173.402344 142.484375 L 163.707031 154.269531 "/>
<path style="fill:none;stroke-width:1.2;stroke-linecap:butt;stroke-linejoin:miter;stroke:rgb(0%,0%,100%);stroke-opacity:1;stroke-miterlimit:10;" d="M 163.707031 154.269531 L 148.648438 151.761719 "/>
<path style="fill:none;stroke-width:1.2;stroke-linecap:butt;stroke-linejoin:miter;stroke:rgb(0%,0%,0%);stroke-opacity:1;stroke-miterlimit:10;" d="M 148.648438 151.761719 L 133.59375 149.257812 "/>
<path style=" stroke:none;fill-rule:nonzero;fill:rgb(100%,100%,100%);fill-opacity:1;" d="M 154.707031 147.269531 L 172.707031 147.269531 L 172.707031 161.269531 L 154.707031 161.269531 Z M 154.707031 147.269531 "/>
<g style="fill:rgb(0%,0%,100%);fill-opacity:1;">
  <use xlink:href="#glyph0-1" x="154.707031" y="158.408203"/>
  <use xlink:href="#glyph0-2" x="163.683594" y="158.408203"/>
</g>
<path style="fill:none;stroke-width:1.2;stroke-linecap:butt;stroke-linejoin:miter;stroke:rgb(0%,0%,0%);stroke-opacity:1;stroke-miterlimit:10;" d="M 133.59375 149.257812 L 114.199219 172.828125 "/>
<path style="fill:none;stroke-width:1.2;stroke-linecap:butt;stroke-linejoin:miter;stroke:rgb(0%,0%,0%);stroke-opacity:1;stroke-miterlimit:10;" d="M 114.199219 172.828125 L 84.089844 167.816406 "/>
<path style="fill:none;stroke-width:1.2;stroke-linecap:butt;stroke-linejoin:miter;stroke:rgb(0%,0%,0%);stroke-opacity:1;stroke-miterlimit:10;" d="M 84.089844 167.816406 L 62.335938 189.230469 "/>
<path style="fill:none;stroke-width:1.2;stroke-linecap:butt;stroke-linejoin:miter;stroke:rgb(0%,0%,0%);stroke-opacity:1;stroke-miterlimit:10;" d="M 76.875 164.839844 L 59.472656 181.96875 "/>
<path style="fill:none;stroke-width:1.2;stroke-linecap:butt;stroke-linejoin:miter;stroke:rgb(0%,0%,100%);stroke-opacity:1;stroke-miterlimit:10;" d="M 70.445312 140.511719 L 77.269531 154.164062 "/>
<path style="fill:none;stroke-width:1.2;stroke-linecap:butt;stroke-linejoin:miter;stroke:rgb(0%,0%,0%);stroke-opacity:1;stroke-miterlimit:10;" d="M 77.269531 154.164062 L 84.089844 167.816406 "/>
<path style="fill:none;stroke-width:1.2;stroke-linecap:butt;stroke-linejoin:miter;stroke:rgb(0%,0%,0%);stroke-opacity:1;stroke-miterlimit:10;" d="M 62.335938 189.230469 L 48.792969 182.195312 "/>
<path style="fill:none;stroke-width:1.2;stroke-linecap:butt;stroke-linejoin:miter;stroke:rgb(0%,0%,100%);stroke-opacity:1;stroke-miterlimit:10;" d="M 48.792969 182.195312 L 35.25 175.160156 "/>
<path style="fill:none;stroke-width:1.2;stroke-linecap:butt;stroke-linejoin:miter;stroke:rgb(0%,0%,100%);stroke-opacity:1;stroke-miterlimit:10;" d="M 35.25 175.160156 L 37.753906 160.101562 "/>
<path style="fill:none;stroke-width:1.2;stroke-linecap:butt;stroke-linejoin:miter;stroke:rgb(0%,0%,0%);stroke-opacity:1;stroke-miterlimit:10;" d="M 37.753906 160.101562 L 40.261719 145.046875 "/>
<path style="fill:none;stroke-width:1.2;stroke-linecap:butt;stroke-linejoin:miter;stroke:rgb(0%,0%,100%);stroke-opacity:1;stroke-miterlimit:10;" d="M 42.835938 173.328125 L 44.839844 161.28125 "/>
<path style="fill:none;stroke-width:1.2;stroke-linecap:butt;stroke-linejoin:miter;stroke:rgb(0%,0%,0%);stroke-opacity:1;stroke-miterlimit:10;" d="M 44.839844 161.28125 L 46.84375 149.238281 "/>
<path style=" stroke:none;fill-rule:nonzero;fill:rgb(100%,100%,100%);fill-opacity:1;" d="M 31.25 168.160156 L 40.25 168.160156 L 40.25 182.160156 L 31.25 182.160156 Z M 31.25 168.160156 "/>
<g style="fill:rgb(0%,0%,100%);fill-opacity:1;">
  <use xlink:href="#glyph0-1" x="31.25" y="179.298828"/>
</g>
<path style="fill:none;stroke-width:1.2;stroke-linecap:butt;stroke-linejoin:miter;stroke:rgb(0%,0%,0%);stroke-opacity:1;stroke-miterlimit:10;" d="M 40.261719 145.046875 L 55.355469 142.777344 "/>
<path style="fill:none;stroke-width:1.2;stroke-linecap:butt;stroke-linejoin:miter;stroke:rgb(0%,0%,100%);stroke-opacity:1;stroke-miterlimit:10;" d="M 55.355469 142.777344 L 70.445312 140.511719 "/>
<path style=" stroke:none;fill-rule:nonzero;fill:rgb(100%,100%,100%);fill-opacity:1;" d="M 61.445312 133.511719 L 79.445312 133.511719 L 79.445312 147.511719 L 61.445312 147.511719 Z M 61.445312 133.511719 "/>
<g style="fill:rgb(0%,0%,100%);fill-opacity:1;">
  <use xlink:href="#glyph0-1" x="61.445312" y="144.650391"/>
  <use xlink:href="#glyph0-2" x="70.421875" y="144.650391"/>
</g>
<path style=" stroke:none;fill-rule:nonzero;fill:rgb(100%,100%,100%);fill-opacity:1;" d="M 162.421875 175.851562 L 174.421875 175.851562 L 174.421875 189.851562 L 162.421875 189.851562 Z M 162.421875 175.851562 "/>
<g style="fill:rgb(0%,80%,0%);fill-opacity:1;">
  <use xlink:href="#glyph0-3" x="162.421875" y="186.990234"/>
  <use xlink:href="#glyph0-4" x="170.800781" y="186.990234"/>
</g>
</g>
</svg>

<svg xmlns="http://www.w3.org/2000/svg" xmlns:xlink="http://www.w3.org/1999/xlink" width="300pt" height="300pt" viewBox="0 0 300 300"><defs><symbol overflow="visible"><path d="M.594 2.125V-8.47h6V2.126zm.672-.672h4.671V-7.78h-4.67zm0 0"/></symbol><symbol overflow="visible" id="a"><path d="M1.172-8.75h1.594l3.89 7.313V-8.75h1.14V0H6.204L2.328-7.313V0H1.172zm0 0"/></symbol><symbol overflow="visible" id="b"><path d="M1.172-8.75H2.36v3.594h4.296V-8.75h1.188V0H6.656v-4.172H2.36V0H1.17zm0 0"/></symbol><symbol overflow="visible" id="c"><path d="M7.734-8.078v1.25c-.406-.375-.836-.65-1.28-.828-.45-.188-.93-.282-1.438-.282-1 0-1.766.31-2.297.922-.533.618-.798 1.5-.798 2.657 0 1.15.266 2.028.797 2.64.53.618 1.296.923 2.296.923.507 0 .988-.094 1.437-.28.445-.19.875-.462 1.28-.83V-.67c-.417.28-.858.496-1.327.64-.46.134-.945.204-1.453.204-1.336 0-2.383-.406-3.14-1.22-.762-.81-1.14-1.913-1.14-3.31 0-1.408.378-2.517 1.14-3.33.757-.812 1.804-1.218 3.14-1.218.52 0 1.008.074 1.47.22.468.135.905.338 1.31.608zm0 0"/></symbol><symbol overflow="visible" id="d"><path d="M1.125-9.125h1.078V0H1.125zm0 0"/></symbol></defs><g><path fill="#fff" d="M0 0h300v300H0z"/><path d="M264.75 197.883l-19.395 23.57M257.266 195.676l-15.516 18.86M254.035 169.3l10.715 28.583M245.355 221.453l-30.11-5.012M215.246 216.44l-10.715-28.58M220.898 211.063l-8.57-22.864M204.53 187.86l19.396-23.57M204.53 187.86l-15.053-2.505" stroke-width="1.2" stroke="#000" stroke-miterlimit="10" fill="none"/><path d="M189.477 185.355l-15.055-2.503" stroke-width="1.2" stroke="#0c0" stroke-miterlimit="10" fill="none"/><path d="M223.926 164.29l30.11 5.01M225.758 171.875l24.086 4.012M223.926 164.29l-10.715-28.58M213.21 135.71l19.395-23.57M209.605 128.79l15.516-18.856M183.102 130.7l30.11 5.01M232.605 112.14l-5.36-14.292" stroke-width="1.2" stroke="#000" stroke-miterlimit="10" fill="none"/><path d="M227.246 97.848l-5.355-14.29M221.89 83.56l-15.054-2.51" stroke-width="1.2" stroke="#00f" stroke-miterlimit="10" fill="none"/><path d="M206.836 81.05l-15.055-2.503" stroke-width="1.2" stroke="#000" stroke-miterlimit="10" fill="none"/><path d="M217.7 90.14l-12.044-2.003" stroke-width="1.2" stroke="#00f" stroke-miterlimit="10" fill="none"/><path d="M205.656 88.137l-12.043-2.004" stroke-width="1.2" stroke="#000" stroke-miterlimit="10" fill="none"/><path d="M217.89 76.56h9v14h-9zm0 0" fill="#fff"/><use xlink:href="#a" x="217.891" y="87.697" fill="#00f"/><path d="M191.78 78.547l-9.698 11.785" stroke-width="1.2" stroke="#000" stroke-miterlimit="10" fill="none"/><path d="M182.082 90.332l-9.695 11.785M172.387 102.117l5.355 14.29" stroke-width="1.2" stroke="#00f" stroke-miterlimit="10" fill="none"/><path d="M177.742 116.406l5.36 14.293" stroke-width="1.2" stroke="#000" stroke-miterlimit="10" fill="none"/><path d="M180.184 102.453l4.285 11.434" stroke-width="1.2" stroke="#00f" stroke-miterlimit="10" fill="none"/><path d="M184.47 113.887l4.284 11.43" stroke-width="1.2" stroke="#000" stroke-miterlimit="10" fill="none"/><path d="M168.387 95.117h9v14h-9zm0 0" fill="#fff"/><use xlink:href="#a" x="168.387" y="106.256" fill="#00f"/><path d="M183.102 130.7l-9.7 11.784" stroke-width="1.2" stroke="#000" stroke-miterlimit="10" fill="none"/><path d="M173.402 142.484l-9.695 11.786M163.707 154.27l-15.06-2.508" stroke-width="1.2" stroke="#00f" stroke-miterlimit="10" fill="none"/><path d="M148.648 151.762l-15.054-2.504" stroke-width="1.2" stroke="#000" stroke-miterlimit="10" fill="none"/><path d="M154.707 147.27h18v14h-18zm0 0" fill="#fff"/><g fill="#00f"><use xlink:href="#a" x="154.707" y="158.408"/><use xlink:href="#b" x="163.684" y="158.408"/></g><path d="M133.594 149.258l-19.395 23.57M114.2 172.828l-30.11-5.012M84.09 167.816L62.336 189.23M76.875 164.84l-17.402 17.13" stroke-width="1.2" stroke="#000" stroke-miterlimit="10" fill="none"/><path d="M70.445 140.512l6.825 13.652" stroke-width="1.2" stroke="#00f" stroke-miterlimit="10" fill="none"/><path d="M77.27 154.164l6.82 13.652M62.336 189.23l-13.543-7.035" stroke-width="1.2" stroke="#000" stroke-miterlimit="10" fill="none"/><path d="M48.793 182.195L35.25 175.16M35.25 175.16l2.504-15.058" stroke-width="1.2" stroke="#00f" stroke-miterlimit="10" fill="none"/><path d="M37.754 160.102l2.508-15.055" stroke-width="1.2" stroke="#000" stroke-miterlimit="10" fill="none"/><path d="M42.836 173.328l2.004-12.047" stroke-width="1.2" stroke="#00f" stroke-miterlimit="10" fill="none"/><path d="M44.84 161.28l2.004-12.042" stroke-width="1.2" stroke="#000" stroke-miterlimit="10" fill="none"/><path d="M31.25 168.16h9v14h-9zm0 0" fill="#fff"/><use xlink:href="#a" x="31.25" y="179.299" fill="#00f"/><path d="M40.262 145.047l15.093-2.27" stroke-width="1.2" stroke="#000" stroke-miterlimit="10" fill="none"/><path d="M55.355 142.777l15.09-2.265" stroke-width="1.2" stroke="#00f" stroke-miterlimit="10" fill="none"/><path d="M61.445 133.512h18v14h-18zm0 0" fill="#fff"/><g fill="#00f"><use xlink:href="#a" x="61.445" y="144.65"/><use xlink:href="#b" x="70.422" y="144.65"/></g><path d="M162.422 175.852h12v14h-12zm0 0" fill="#fff"/><g fill="#0c0"><use xlink:href="#c" x="162.422" y="186.99"/><use xlink:href="#d" x="170.801" y="186.99"/></g></g></svg>
